d1 $ fast 2 $ sound "wind:49" # legato 1

d2 $ hurry 1 $ sound "~ wind:91 wind:43" # legato 1

d3 $ fast 2 $ sound "wind:97!3" # legato 1

d4 $ hurry 1 $ sound "wind:54 wind:36 wind:70/2 wind:76" # legato 1

hush
