d1 $ hurry 2 $ sound ". birds:62 ~" # legato 1

d2 $ fast 1 $ sound "~ jvbass:93 noise:77 mash:12@3" # legato 1

d3 $ slow 2 $ sound "stomp:32@3 arp:24!2 ~" # legato 1

d4 $ fast 2 $ sound "bd:59@2 bass:68@2" # legato 1

hush
